X:511
T:Dumbarton Castle 
C:Joe Buchanan's Scottish Tome - Page 032.0
I:032 0
R:Quickstep
Z:Carl Allison
L:1/16
M:4/4
K:A
(G2 | [AA]2)>E2 .!tenuto!C2.!tenuto!A,2 | E4- E2 FG | ABcd e2A2 | c2B2 B2c2 |
{G}[AA]2)>E2 .!tenuto!C2.!tenuto!B,2 | E4- E2 FG | ABcd B2ed | c2A2 A4 :|
e2 | (a2>g2 f2).!tenuto!a2 | {f}(e4 .c2).A2 | .A.B.c.d e2A2 | c2B2 B2e2 |
| (a2>g2 f2).a2 | e<e.!tenuto!c2 .!tenuto!A2.!tenuto!F2 | ABcd .!tenuto!B2.e.d | c2A2 A2e2 |
| (a2>g2 f2)a2 | {f}(e4 .c2).A2 | .A.B.c.d .f.e.d.c | .B.A.G.A .B.d.c.B |
| {G}[AA]2)>E2 .!tenuto!C2.!tenuto!A,2 | E4- E4 FG | ABcd B2ed | c2A2 A4 |]
E2 | .A.G.F.E .D.C.B,.A, .E.A,.B,.C .D.E.F.G | .A.B.c.d .f.e.d.c | .B.A.G.A .B.d.c.B |
| AGFE DCB,A, | EA,B,C DEFG | ABcd B2ed | c2A2 A4 :|
e2 | agag faea | ecaf ecAF | Bcd fedc | BAGA Befg |
| agag faea | eaf ecAF |  ABcd B2ed | c2A2 A2e2 |
| gAag faea | ecaf ecAF | ABcd fedc | BAGA BdcB |
| AFE DCB,A, | EA,B,C DEFG | ABcd B2ed | c2A2 A4 |]

